dist/img/stack/stack-8.svg

<svg width="110" height="110" viewBox="0 0 110 110" fill="none" xmlns="http://www.w3.org/2000/svg">
<path d="M83.6889 38.4557C83.3507 35.7488 81.6594 33.5495 79.4608 31.8577L78.6151 31.1809L77.9386 32.0269C76.5855 33.5495 76.0782 36.2564 76.2473 38.2865C76.4164 39.8091 76.9238 41.3317 77.7695 42.516C77.0929 42.8544 76.2473 43.1927 75.5708 43.5311C74.0487 44.0386 72.5265 44.2078 71.0043 44.2078H27.2001L27.031 45.2228C26.6928 48.4373 27.2001 51.8209 28.5532 54.8661L29.2297 56.0503V56.2195C33.2888 62.9868 40.5613 66.032 48.5103 66.032C63.7318 66.032 76.2473 59.434 82.1668 45.2228C86.0567 45.3921 89.9467 44.3769 91.8071 40.655L92.3145 39.8091L91.4688 39.3016C89.2701 37.9481 86.2258 37.7789 83.6889 38.4557ZM61.8714 35.7488H55.2754V42.3468H61.8714V35.7488ZM61.8714 27.459H55.2754V34.057H61.8714V27.459ZM61.8714 19H55.2754V25.598H61.8714V19ZM69.9895 35.7488H63.3936V42.3468H69.9895V35.7488ZM45.466 35.7488H38.87V42.3468H45.466V35.7488ZM53.7532 35.7488H47.1573V42.3468H53.7532V35.7488ZM37.3478 35.7488H30.7518V42.3468H37.3478V35.7488ZM53.7532 27.459H47.1573V34.057H53.7532V27.459ZM45.466 27.459H38.87V34.057H45.466V27.459Z" fill="#B7B7BE"/>
<path d="M73.9828 87.7241C75.7584 86.2021 77.5339 84.7818 79.3096 83.2598C79.9363 82.7525 80.5629 82.2452 81.1897 81.6364C80.6674 81.0276 79.9363 80.6217 79.2051 80.3174C77.8473 79.8101 76.4895 80.013 75.1317 80.7233C73.4605 81.6364 72.7294 83.1583 72.8339 84.9846C72.8339 85.6948 73.0427 86.4051 73.4605 87.0139C73.7738 87.3183 73.8783 87.5212 73.9828 87.7241ZM76.0717 89.1446C76.9073 89.449 77.9517 89.449 78.8918 89.246C79.3096 89.0431 80.5629 88.5358 80.9807 88.6372H81.1897C81.503 88.7387 81.7118 88.9417 81.8163 89.246C82.1296 89.8548 82.0252 90.4636 81.3985 90.7679L81.1897 90.8695C78.8918 92.1884 76.4895 91.9855 74.1916 90.7679C73.1472 90.1592 72.3116 89.3475 71.6849 88.3329L71.5805 88.1299C70.1182 85.6948 70.3271 83.0568 71.9983 80.7233C72.5205 79.9115 73.356 79.3028 74.1916 78.7955L74.505 78.5925C76.6984 77.375 78.9962 77.4764 81.1897 78.4911C82.3385 79.0998 83.383 79.9115 84.0097 81.0276L84.1142 81.2306C84.6363 82.0422 84.0097 82.7525 83.2786 83.2598L81.0852 85.0861C79.2051 86.5066 77.6384 87.8256 76.0717 89.1446ZM93.0966 77.9838H93.3055C94.0366 77.9838 94.5589 78.4911 94.5589 79.2013C94.5589 80.216 93.6188 80.4189 92.7833 80.4189C91.7387 80.4189 90.6943 81.0276 89.9632 81.7379C89.0232 82.651 88.6054 83.7671 88.6054 84.9846V90.6665C88.6054 91.2752 88.1876 91.8841 87.4565 91.8841H87.2475C86.5164 91.8841 86.0986 91.3768 86.0986 90.6665V84.6802C86.0986 82.3466 87.2475 80.5203 89.1276 79.2013C90.4854 78.3896 91.7387 77.9838 93.0966 77.9838ZM63.2247 81.9408L66.0448 79.2013C66.3581 78.9984 67.2982 77.8823 67.7159 77.8823H68.1337C68.656 77.9838 69.0738 78.2882 69.0738 78.8969V79.0998C69.0738 79.5057 68.5515 79.9115 68.3426 80.216C67.8204 80.8247 67.1937 81.332 66.6714 81.9408L63.7469 84.7818L67.507 88.4344L68.5515 89.449L68.9693 89.8548C69.0738 90.0577 69.1782 90.1592 69.1782 90.3622V90.6665C69.0738 91.1738 68.656 91.5797 68.1337 91.5797H67.9248C67.507 91.5797 67.0892 91.1738 66.7759 90.8695C66.2536 90.3622 65.627 89.8548 65.1047 89.246L63.2247 87.5212V90.3622C63.2247 90.9709 62.8069 91.5797 62.0758 91.5797H61.8669C61.1358 91.5797 60.718 91.0724 60.718 90.3622V74.737C60.718 74.1283 61.1358 73.6209 61.8669 73.6209H62.0758C62.8069 73.6209 63.2247 74.1283 63.2247 74.737V81.9408ZM55.4956 80.4189C55.1823 80.216 54.4512 80.216 54.0334 80.216C52.0489 80.1144 50.5866 81.2306 49.751 82.9554C49.4377 83.5642 49.3332 84.1729 49.3332 84.8832C49.3332 86.9124 50.3778 88.3329 52.2578 89.1446C52.8845 89.449 53.8244 89.5504 54.5556 89.5504C55.1823 89.5504 56.1223 89.1446 56.6446 88.9417H57.1668C57.689 89.0431 58.1068 89.3475 58.1068 89.9563V90.1592C58.1068 91.5797 55.3912 91.8841 54.4512 91.9855C50.8999 92.1884 48.1843 90.2606 47.1398 87.0139C46.931 86.4051 46.931 85.8978 46.931 85.2891V84.7818C46.931 82.2452 48.1843 80.216 50.4821 78.9984C51.5267 78.3896 52.6755 78.0852 53.9289 78.0852H54.4512C55.7045 78.0852 56.9579 78.3896 58.0023 79.0998L58.1068 79.2013L58.2113 79.3028C58.3157 79.5057 58.4201 79.7087 58.4201 79.9115V80.1144C58.4201 80.7233 58.0023 81.0276 57.3757 81.1291H57.2712C56.5401 80.9262 55.7045 80.5203 55.4956 80.4189ZM33.5617 84.7818C33.5617 86.5066 34.5018 87.8256 35.964 88.7387C36.6951 89.1446 37.5307 89.3475 38.3663 89.3475C40.1419 89.3475 41.4997 88.4344 42.4398 87.0139C42.8576 86.3037 43.0664 85.4919 43.0664 84.6802C43.0664 83.0568 42.2308 81.7379 40.873 80.8247C40.1419 80.3174 39.2018 80.1144 38.3663 80.1144C36.3818 80.1144 34.9196 81.1291 34.084 82.854C33.5617 83.5642 33.5617 84.1729 33.5617 84.7818ZM37.9485 77.8823H38.2619C41.0819 77.8823 43.1709 79.2013 44.5287 81.5349C45.0509 82.4481 45.3643 83.4627 45.3643 84.5788V85.0861C45.3643 87.6226 44.1109 89.6519 41.813 90.8695C40.7686 91.4782 39.6196 91.7825 38.3663 91.7825H37.8441C35.2329 91.7825 33.144 90.565 31.8906 88.3329C31.2639 87.3183 30.9505 86.2021 30.9505 84.9846V84.4773C30.9505 81.9408 32.2039 79.9115 34.5018 78.694C35.6507 78.1867 36.6951 77.8823 37.9485 77.8823ZM17.6858 84.7818C17.6858 86.608 18.6258 88.0285 20.297 88.8402C20.9236 89.1446 21.6548 89.3475 22.4903 89.3475C24.3704 89.3475 25.7282 88.5358 26.6682 87.0139C27.086 86.3037 27.2949 85.4919 27.2949 84.6802C27.2949 83.0568 26.5638 81.8393 25.206 80.9262C24.3704 80.4189 23.5348 80.1144 22.4903 80.1144C20.5058 80.1144 19.0436 81.1291 18.208 82.854C17.8947 83.5642 17.6858 84.1729 17.6858 84.7818ZM27.2949 79.6071V74.6356C27.2949 74.0267 27.7127 73.418 28.4438 73.418H28.6527C29.3839 73.418 29.8016 73.9253 29.8016 74.6356V85.0861C29.8016 87.6226 28.5483 89.6519 26.2504 90.8695C25.206 91.4782 24.0571 91.7825 22.8037 91.7825H22.2814C19.6703 91.7825 17.5813 90.565 16.328 88.3329C15.7013 87.3183 15.3879 86.2021 15.3879 84.9846V84.4773C15.3879 81.9408 16.6413 79.9115 18.9391 78.694C19.9836 78.0852 21.1325 77.7809 22.3859 77.7809H22.9081C24.4749 77.8823 26.0415 78.4911 27.2949 79.6071Z" fill="#B7B7BE"/>
</svg>

<svg width="110" height="110" viewBox="0 0 110 110" fill="none" xmlns="http://www.w3.org/2000/svg"><path d="M83.689 38.456c-.338-2.707-2.03-4.907-4.228-6.598l-.846-.677-.676.846c-1.353 1.523-1.86 4.23-1.692 6.26.17 1.522.677 3.045 1.522 4.229-.676.338-1.522.677-2.198 1.015-1.522.508-3.044.677-4.567.677H27.2l-.169 1.015a19.038 19.038 0 001.522 9.643l.677 1.184v.17c4.059 6.767 11.331 9.812 19.28 9.812 15.222 0 27.737-6.598 33.657-20.81 3.89.17 7.78-.845 9.64-4.567l.507-.846-.845-.507c-2.199-1.354-5.243-1.523-7.78-.846zM61.87 35.749h-6.596v6.598h6.596v-6.598zm0-8.29h-6.596v6.598h6.596v-6.598zm0-8.459h-6.596v6.598h6.596V19zm8.119 16.749h-6.596v6.598h6.596v-6.598zm-24.524 0H38.87v6.598h6.596v-6.598zm8.287 0h-6.596v6.598h6.596v-6.598zm-16.405 0h-6.596v6.598h6.596v-6.598zm16.405-8.29h-6.596v6.598h6.596v-6.598zm-8.287 0H38.87v6.598h6.596v-6.598zm28.518 60.265c1.775-1.522 3.55-2.942 5.327-4.464.626-.508 1.253-1.015 1.88-1.624-.523-.608-1.254-1.014-1.985-1.319-1.358-.507-2.715-.304-4.073.406-1.672.913-2.403 2.435-2.298 4.262 0 .71.209 1.42.626 2.029.314.304.418.507.523.71zm2.089 1.42c.835.305 1.88.305 2.82.102.418-.203 1.67-.71 2.089-.609h.209a.929.929 0 01.626.609c.314.609.21 1.218-.418 1.522l-.208.102c-2.298 1.318-4.7 1.115-6.998-.102a7.101 7.101 0 01-2.507-2.435l-.105-.203c-1.462-2.435-1.253-5.073.418-7.407.522-.811 1.358-1.42 2.194-1.927l.313-.204c2.193-1.217 4.491-1.116 6.685-.1 1.148.608 2.193 1.42 2.82 2.536l.104.203c.522.811-.104 1.522-.835 2.029l-2.194 1.826c-1.88 1.42-3.447 2.74-5.013 4.059zm17.025-11.16h.209c.73 0 1.253.507 1.253 1.217 0 1.015-.94 1.218-1.776 1.218-1.044 0-2.089.609-2.82 1.319-.94.913-1.358 2.03-1.358 3.247v5.681c0 .61-.417 1.218-1.148 1.218h-.21c-.73 0-1.148-.507-1.148-1.218V84.68c0-2.333 1.148-4.16 3.029-5.479 1.357-.811 2.61-1.217 3.969-1.217zM63.225 81.94l2.82-2.74c.313-.203 1.253-1.319 1.67-1.319h.419c.522.102.94.406.94 1.015v.203c0 .406-.522.812-.731 1.116-.523.609-1.15 1.116-1.672 1.725l-2.924 2.84 3.76 3.653 1.044 1.015.418.406c.105.203.21.304.21.507v.305c-.105.507-.523.913-1.045.913h-.21c-.417 0-.835-.406-1.148-.71-.522-.508-1.149-1.015-1.671-1.624l-1.88-1.725v2.841c0 .609-.418 1.218-1.15 1.218h-.208c-.731 0-1.149-.508-1.149-1.218V74.737c0-.609.418-1.116 1.149-1.116h.209c.73 0 1.149.507 1.149 1.116v7.204zm-7.73-1.522c-.313-.203-1.044-.203-1.462-.203-1.984-.102-3.446 1.015-4.282 2.74-.313.608-.418 1.217-.418 1.927 0 2.03 1.045 3.45 2.925 4.262.627.304 1.566.405 2.298.405.626 0 1.566-.405 2.089-.608h.522c.522.101.94.406.94 1.014v.203c0 1.42-2.716 1.725-3.656 1.826-3.551.203-6.267-1.724-7.311-4.971-.209-.609-.209-1.116-.209-1.725v-.507c0-2.537 1.253-4.566 3.551-5.784a6.732 6.732 0 013.447-.913h.522c1.254 0 2.507.305 3.551 1.015l.105.101.104.102c.105.203.21.406.21.609v.202c0 .61-.419.914-1.045 1.015h-.105c-.73-.203-1.566-.609-1.775-.71zm-21.933 4.363c0 1.725.94 3.044 2.402 3.957a4.963 4.963 0 002.402.608c1.776 0 3.134-.913 4.074-2.333.418-.71.626-1.522.626-2.334 0-1.623-.835-2.942-2.193-3.855-.731-.508-1.671-.71-2.507-.71-1.984 0-3.446 1.014-4.282 2.739-.522.71-.522 1.319-.522 1.928zm4.387-6.9h.313c2.82 0 4.909 1.32 6.267 3.653.522.913.835 1.928.835 3.044v.507c0 2.537-1.253 4.566-3.551 5.784-1.044.608-2.193.912-3.447.912h-.522c-2.611 0-4.7-1.217-5.953-3.45a6.248 6.248 0 01-.94-3.347v-.508c0-2.536 1.253-4.566 3.55-5.783 1.15-.507 2.194-.812 3.448-.812zm-20.263 6.9c0 1.826.94 3.246 2.611 4.058a4.97 4.97 0 002.193.507c1.88 0 3.238-.811 4.178-2.333.418-.71.627-1.522.627-2.334 0-1.623-.731-2.84-2.089-3.754-.836-.507-1.671-.812-2.716-.812-1.984 0-3.446 1.015-4.282 2.74-.313.71-.522 1.319-.522 1.928zm9.609-5.175v-4.971c0-.61.418-1.218 1.149-1.218h.209c.73 0 1.149.507 1.149 1.218v10.45c0 2.537-1.254 4.566-3.552 5.784-1.044.608-2.193.912-3.446.912h-.523c-2.61 0-4.7-1.217-5.953-3.45a6.248 6.248 0 01-.94-3.347v-.508c0-2.536 1.253-4.566 3.551-5.783 1.045-.609 2.194-.913 3.447-.913h.522a7.316 7.316 0 014.387 1.826z" fill="#B7B7BE"/></svg>
